!!!!SEGMENT: pl-kk--kk-i-2--007-004_anonim--missa-regina-caeli-sanctus.krn
!!!cenid: 16xx:1611
!!!COM: Anonim
!!!COM-rismID: pe30004985
!!!CDT:
!!!CNT:
!!!OPR: Missa Regina caeli
!!!OTL: Sanctus
!!!OMV: 004
!!!PDT:
!!!AGN: Sacred; Mass
!!!SMS-siglum: PL-Kk
!!!SMS-shelfmark: Kk.I.2
!!!SMS-shelfwork: 007-004 M
!!!NIFC-rismSourceID: 300258016
!!!NIFC-rismChildID: 300258023
!!!NIFC-islandoraID: pl-kk:750
!!!URL-pdf-islandora: https://repozytorium.nifc.pl/islandora/object/pl-kk%3A750/datastream/PDF/view
!!!URL-scan: https://polish.musicsources.pl/pl/lokalizacje/galeria/rekopisy/5828 @EN{Scan on Polish Music Sources Website} @PL{Skany w portalu Dziedzictwo Muzyki Polskiej w otwartym dostępie}
!!!ONB-nifc: Części mszy: Kyrie, Gloria, Credo, Sanctus, Agnus Dei; skany: C: 0023-0024; A: 0123-0124; T: 0228; B: 0325-0326;
!!!AIN: 3 empty 1 tenor
!!!key:
**kern	**text	**kern	**text	**kern	**text	**kern	**text
*part4	*part4	*part3	*part3	*part2	*part2	*part1	*part1
*staff4	*staff4	*staff3	*staff3	*staff2	*staff2	*staff1	*staff1
*Iempty	*	*Itenor	*	*Iempty	*	*Iempty	*
*I"BASVS	*	*I"TENOR	*	*I"ALTVS	*	*I"DISCANTVS	*
*I'B	*	*I'T	*	*I'A	*	*I'S	*
*clefF4	*	*clefC4	*	*clefC4	*	*clefC3	*
*k[b-]	*	*k[b-]	*	*k[b-]	*	*k[b-]	*
*F:	*	*F:	*	*F:	*	*F:	*
*M2/1	*	*M2/1	*	*M2/1	*	*M2/1	*
*met(c|)	*	*met(c|)	*	*met(c|)	*	*met(c|)	*
=1	=1	=1	=1	=1	=1	=1	=1
*xywh-#325:7713,1484,6302,973	*	*xywh-#228:1288,2373,6225,849	*	*xywh-#123:7755,3858,6314,1408	*	*xywh-#23:1212,3762,6149,1268	*
0r	.	0r	.	0r	.	1f	San-
!	!	!	!	!LO:TX:t=P:problem= kreska taktowa w źródle	!	!	!
.	.	.	.	.	.	2c,/	-ćtus
.	.	.	.	.	.	1f	San-
=2	=2	=2	=2	=2	=2	=2	=2
!	!	!	!	!LO:TX:t=P:problem= kreska taktowa w źródle	!	!	!
0r	.	0r	.	0c	San-	.	.
.	.	.	.	.	.	4e\	.
!	!	!	!	!	!	!LO:TX:t=P:problem= kreska taktowa w źródle	!
.	.	.	.	.	.	4d\	.
.	.	.	.	.	.	1e	.
=3	=3	=3	=3	=3	=3	=3	=3
!LO:TX:t=P:problem= kreska taktowa w źródle	!	!	!	!	!	!	!
1r	.	1r	.	2F/	-ctus	2.f\	.
.	.	.	.	1B-	ſa(n)c-	.	.
.	.	.	.	.	.	4e\	.
!	!	!LO:TX:a:t=2	!	!	!	!	!
*	*	*lig	*	*	*	*	*
1F	SAn-	0F	San-	.	.	2d/	.
.	.	.	.	4A/	.	4c/	.
!	!	!	!	!LO:TX:t=P:problem= kreska taktowa w źródle	!	!LO:TX:t=P:problem= kreska taktowa w źródle	!
.	.	.	.	4G/	.	4B-/	.
=4	=4	=4	=4	=4	=4	=4	=4
2FF/	-ctus	.	.	1A	.	1c	.
1F	San-	.	.	.	.	.	.
!	!	!	!	!	!	!LO:TX:t=P:problem= kreska taktowa w źródle	!
.	.	0G	.	2G/	.	0c	-ctus
!	!	!	!	!LO:TX:t=P:problem= kreska taktowa w źródle	!	!	!
4E\	.	.	.	2C/	.	.	.
!LO:TX:t=P:problem= kreska taktowa w źródle	!	!	!	!	!	!	!
4D/	.	.	.	.	.	.	.
*	*	*Xlig	*	*	*	*	*
=5	=5	=5	=5	=5	=5	=5	=5
1E	.	.	.	1G	.	.	.
*	*	*lig	*	*	*	*	*
2.F\	.	0F	.	2A/	-ctus	1c	San-
.	.	.	.	2.A/	sanc-	.	.
4E\	.	.	.	.	.	.	.
=6	=6	=6	=6	=6	=6	=6	=6
2D/	.	.	.	.	.	2d,/	-ctus
.	.	.	.	4B-\	.	.	.
!	!	!	!	!LO:TX:t=P:problem= kreska taktowa w źródle	!	!	!
!LO:TX:t=P:problem= kreska taktowa w źródle	!	!	!	!	!	!	!
2AA/	.	.	.	2c\	.	2.c\	san-
0C	.	0G	.	0c	-tus	.	.
.	.	.	.	.	.	4d\	.
.	.	.	.	.	.	4e\	.
!	!	!	!	!	!	!LO:TX:t=P:problem= kreska taktowa w źródle	!
.	.	.	.	.	.	4f\	.
*	*	*Xlig	*	*	*	*	*
=7	=7	=7	=7	=7	=7	=7	=7
.	.	.	.	.	.	2g\	.
!	!	!	!	!	!	!LO:TX:t=P:problem= kreska taktowa w źródle	!
.	.	.	.	.	.	2e\	-ctus
!	!	!	!	!	!	!LO:TX:t=P:problem= kreska taktowa w źródle	!
!	!	!LO:TX:t=P:problem= kreska taktowa w źródle	!	!	!	!	!
1AA	.	0A	.	1c	ſa(n)c-	1r	.
=8	=8	=8	=8	=8	=8	=8	=8
!	!	!	!	!LO:TX:t=P:problem= kreska taktowa w źródle	!	!	!
1D	-ctus	.	.	1d	-tus	1d	san-
!	!	!	!	!LO:TX:t=P:problem= kreska taktowa w źródle	!	!	!
!LO:TX:t=P:problem= kreska taktowa w źródle	!	!	!	!	!	!	!
1G	Sa(n)-	0B-	.	1r	.	2G/	-ctus
.	.	.	.	.	.	2.d	(san)-
=9	=9	=9	=9	=9	=9	=9	=9
2GG/	-ctus	.	.	1d	ſanc-	.	.
.	.	.	.	.	.	4c/	.
1G	San-	.	.	.	.	4B-/	.
*	*	*	*	*	*	*custos:d	*
!	!	!	!	!	!	!LO:TX:t=P:problem= kreska taktowa w źródle	!
!	!	!	!	!	!	!LO:PB:g=original	!
.	.	.	.	.	.	4c/	.
*	*	*	*	*	*	*xywh-#23:7670,581,6407,1070	*
.	.	0A	.	1.D	-tus	4d\	.
.	.	.	.	.	.	4e\	.
!	!	!	!	!	!	!LO:TX:t=P:problem=niezgodny pion harmoniczny	!
4F#X\	.	.	.	.	.	4f\	.
!LO:TX:t=P:problem= kreska taktowa w źródle	!	!	!	!	!	!	!
4E\	.	.	.	.	.	4g\	.
=10	=10	=10	=10	=10	=10	=10	=10
1F#X	.	.	.	.	.	2a\	.
!	!	!	!	!	!	!LO:TX:t=P:problem= kreska taktowa w źródle	!
!	!	!	!	!LO:TX:t=P:problem= kreska taktowa w źródle	!	!	!
.	.	.	.	(<2.d\	Sanc-	2A/	-ctus
2G\	.	0G	.	.	.	2r	.
.	.	.	.	4c\)	.	.	.
!	!	!	!	!	!	!LO:TX:t=P:problem= kreska taktowa w źródle	!
2GG/	.	.	.	4B-\	.	2d\	san-
!	!	!	!	!LO:TX:t=P:problem= kreska taktowa w źródle	!	!	!
.	.	.	.	4A\	.	.	.
=11	=11	=11	=11	=11	=11	=11	=11
!LO:TX:t=P:problem= kreska taktowa w źródle	!	!	!	!	!	!	!
1GG	-ctus	.	.	4B-\	.	2G,/	-ctus
.	.	.	.	4A\	.	.	.
.	.	.	.	4G/	.	1g	sanc-
.	.	.	.	8F/L	.	.	.
*	*	*	*	*custos:D	*	*	*
!	!	!	!	!LO:TX:t=P:problem= kreska taktowa w źródle	!	!	!
!	!	!	!	!LO:PB:g=original	!	!	!
.	.	.	.	8E/J	.	.	.
*	*	*	*	*xywh-#124:1452,674,6090,1081	*	*	*
!	!	!	!	!LO:TX:t=P:problem= kreska taktowa w źródle	!	!	!
1r	.	0.A	.	1D	.	.	.
.	.	.	.	.	.	4f\	.
!	!	!	!	!	!	!LO:TX:t=P:problem= kreska taktowa w źródle	!
.	.	.	.	.	.	4e\	.
=12	=12	=12	=12	=12	=12	=12	=12
2.FF/	San-	.	.	2C/	-tus	1f	.
.	.	.	.	1c	ſa(n)c-	.	.
*custos:AA	*	*	*	*	*	*	*
!LO:TX:t=P:problem= kreska taktowa w źródle	!	!	!	!	!	!	!
!LO:PB:g=original	!	!	!	!	!	!	!
4GG/	.	.	.	.	.	.	.
*xywh-#325:7708,2366,6222,864	*	*	*	*	*	*	*
2AA/	.	.	.	.	.	2.c/	.
!	!	!	!	!LO:TX:t=P:problem= kreska taktowa w źródle	!	!	!
2FF/	.	.	.	2C/	-tus	.	.
!	!	!	!	!	!	!LO:TX:t=P:problem= kreska taktowa w źródle	!
.	.	.	.	.	.	4d\	.
=13	=13	=13	=13	=13	=13	=13	=13
0C	.	0G	.	2G/	ſa(n)c-	2e\	.
.	.	.	.	1F	.	2f\	.
.	.	.	.	.	.	2g\	.
!	!	!	!	!LO:TX:t=P:problem= kreska taktowa w źródle	!	!	!
.	.	.	.	2E/	.	2c/	.
=14	=14	=14	=14	=14	=14	=14	=14
!	!	!	!	!	!	!LO:TX:t=P:problem= kreska taktowa w źródle	!
!	!	!LO:TX:t=P:problem= kreska taktowa w źródle	!	!	!	!	!
!LO:TX:t=P:problem= kreska taktowa w źródle	!	!	!	!	!	!	!
0FF	-ctus	1F	-ctus	4F/	-tus	0c	-tus
.	.	.	.	2F/	d(o-	.	.
!	!	!	!	!LO:TX:t=P:problem= kreska taktowa w źródle	!	!	!
.	.	.	.	4F/	-mi)-	.	.
.	.	1r	.	2c\	n(u)s	.	.
.	.	.	.	1c	de-	.	.
=15	=15	=15	=15	=15	=15	=15	=15
1r	.	2.F/	Do-	.	.	2r	.
!	!	!	!	!LO:TX:t=P:problem= kreska taktowa w źródle	!	!	!
.	.	.	.	2d\	-us	2.f\	do-
.	.	4F/	-mi-	.	.	.	.
2.C/	Do-	2c\	-nus	2.c\	sab-	.	.
.	.	.	.	.	.	4f\	-mi-
!	!	!	!	!	!	!LO:TX:t=P:problem= kreska taktowa w źródle	!
.	.	1c	De-	.	.	2e\	-nus
!	!	!	!	!LO:TX:t=P:problem= kreska taktowa w źródle	!	!	!
!LO:TX:t=P:problem= kreska taktowa w źródle	!	!	!	!	!	!	!
4C/	-mi-	.	.	4B-\	.	.	.
=16	=16	=16	=16	=16	=16	=16	=16
2F\	-nus	.	.	4A\	.	2f\	de-
.	.	.	.	4G\	.	.	.
!	!	!LO:TX:t=P:problem= kreska taktowa w źródle	!	!	!	!	!
1F	De-	2d\	-us	4F/	.	2f\	-us
.	.	.	.	4G/	.	.	.
.	.	2.c\	Sab-	2A\	.	2.c/	sab-
!LO:TX:t=P:problem= kreska taktowa w źródle	!	!	!	!	!	!	!
2G\	-us	.	.	1B-	.	.	.
!	!	!	!	!	!	!LO:TX:t=P:problem= kreska taktowa w źródle	!
.	.	4B-\	.	.	.	4c/	-ba-
=17	=17	=17	=17	=17	=17	=17	=17
2.F\	Sa-	4A\	.	.	.	2f\	-hot.
.	.	4G\	.	.	.	.	.
*	*	*	*	*	*	*custos:g	*
!	!	!	!	!	!	!LO:PB:g=original	!
.	.	4F/	.	4A\	.	1f	de-
!	!	!	!	!LO:TX:t=P:problem= kreska taktowa w źródle	!	!	!
!	!	!LO:TX:t=P:problem= kreska taktowa w źródle	!	!	!	!	!
4E\	.	4E/	.	4G\	.	.	.
4D/	.	2.F/	.	2A/	.	.	.
4C/	.	.	.	.	.	.	.
*	*	*	*	*	*	*xywh-#23:7629,1508,6502,988	*
!	!	!	!	!	!	!LO:TX:t=P:problem= kreska taktowa w źródle	!
4BB-/	.	.	.	1B-	.	2g\	-us
!LO:TX:t=P:problem= kreska taktowa w źródle	!	!	!	!	!	!	!
4C/	.	4E/	.	.	.	.	.
=18	=18	=18	=18	=18	=18	=18	=18
4D/	.	2A\	.	.	.	1.f	sab-
4E\	.	.	.	.	.	.	.
!	!	!	!	!LO:TX:t=P:problem= kreska taktowa w źródle	!	!	!
2F\	.	4d\	.	2A/	.	.	.
.	.	4c\	.	.	.	.	.
!	!	!LO:TX:b:t=P:problem=# below	!	!	!	!	!
1.G	.	2Bn/	.	1.G	.	.	.
!	!	!	!	!	!	!LO:TX:t=P:problem= kreska taktowa w źródle	!
.	.	1c	.	.	.	2e\	.
=19	=19	=19	=19	=19	=19	=19	=19
.	.	.	.	.	.	2.d\	.
*	*	*custos:c	*	*	*	*	*
!	!	!LO:TX:a:t=P:problem=# above	!	!	!	!	!
!	!	!LO:TX:t=P:problem= kreska taktowa w źródle	!	!	!	!	!
!	!	!LO:PB:g=original	!	!	!	!	!
!LO:TX:t=P:problem= kreska taktowa w źródle	!	!	!	!	!	!	!
2G\	-ba-	2Bn\	-ba-	2G/	-ba-	.	.
.	.	.	.	.	.	4d\	-ba-
*	*	*xywh-#228:1288,2976,6271,993	*	*	*	*	*
*	*	*	*	*custos:A	*	*	*
!	!	!	!	!	!	!LO:TX:t=P:problem= kreska taktowa w źródle	!
!	!	!	!	!LO:TX:t=P:problem= kreska taktowa w źródle	!	!	!
!	!	!	!	!	!	!	!LO:PB:g=original
!LO:TX:t=P:problem= kreska taktowa w źródle	!	!	!	!	!	!	!
1C	-oth	1c	-oth.	1G	-hot	1e	-hot
=20	=20	=20	=20	=20	=20	=20	=20
*	*	*	*	*xywh-#124:1383,1580,6178,993	*	*	*
1F	Ple-	2r	.	1.A	Ple-	1f	Ple-
.	.	2.c\	Ple-	.	.	.	.
2F\	-ni	.	.	.	.	2f\	-ni
.	.	4B-\	-ni	.	.	.	.
!	!	!	!	!LO:TX:t=P:problem= kreska taktowa w źródle	!	!	!
!	!	!LO:TX:t=P:problem= kreska taktowa w źródle	!	!	!	!	!
2F\	ſu(n)t	2A\	ſunt	2c\	-ni	2f\	ſu(n)t
=21	=21	=21	=21	=21	=21	=21	=21
1BB-	cae-	2.F/	cae-	4B-\	ſunt	1d	ce-
.	.	.	.	8A\L	.	.	.
.	.	.	.	8G\J	.	.	.
!	!	!	!	!LO:TX:t=P:problem= kreska taktowa w źródle	!	!	!
.	.	.	.	2F/	.	.	.
.	.	4G/	.	.	.	.	.
!	!	!	!	!	!	!LO:TX:t=P:problem= kreska taktowa w źródle	!
1FF	-li	1A	.	1F	ce-	1c	-li
=22	=22	=22	=22	=22	=22	=22	=22
0C	et	2G/	-li	2.E/	-li	0c	et
.	.	4C/	et	.	.	.	.
!	!	!	!	!LO:TX:t=P:problem= kreska taktowa w źródle	!	!	!
!	!	!LO:TX:t=P:problem= kreska taktowa w źródle	!	!	!	!	!
.	.	4D/	.	4F/	.	.	.
.	.	4E/	.	4G/	.	.	.
.	.	4F/	.	4F/	.	.	.
.	.	2.G/	.	4E/	.	.	.
!	!	!	!	!LO:TX:t=P:problem= kreska taktowa w źródle	!	!	!
.	.	.	.	4F/	et	.	.
=23	=23	=23	=23	=23	=23	=23	=23
!LO:TX:t=P:problem= kreska taktowa w źródle	!	!	!	!	!	!	!
0GG	ter-	.	.	2.G/	ter-	2B-/	ter-
.	.	8F/L	.	.	.	.	.
.	.	8E/J	.	.	.	.	.
!	!	!LO:TX:t=P:problem= kreska taktowa w źródle	!	!	!	!	!
.	.	2D/	.	.	.	1c	.
.	.	.	.	8F/L	.	.	.
!	!	!	!	!LO:TX:t=P:problem= kreska taktowa w źródle	!	!	!
.	.	.	.	8E/J	.	.	.
.	.	1G	ter-	2D/	.	.	.
!	!	!	!	!	!	!LO:TX:t=P:problem= kreska taktowa w źródle	!
.	.	.	.	2G/	.	2B-/	.
=24	=24	=24	=24	=24	=24	=24	=24
2C/	-ra	2G/	-ra	2E/	-rae	2c,/	-ra
2.C/	glo-	2.G/	glo-	2.E/	glo-	2c/	glo-
.	.	.	.	.	.	2d\	-ri-
*custos:BB	*	*	*	*	*	*	*
!LO:PB:g=original	!	!	!	!	!	!	!
4C/	-ri-	4G/	-ri-	4E/	-ri-	.	.
*xywh-#325:7725,3007,6187,1001	*	*	*	*	*	*	*
!LO:N:acc=#	!	!	!	!	!	!	!
!	!	!	!	!LO:TX:t=P:problem= kreska taktowa w źródle	!	!LO:TX:t=P:problem= kreska taktowa w źródle	!
!LO:TX:t=P:problem= kreska taktowa w źródle	!	!	!	!	!	!	!
2BBn/	-a	1G	-a	2D/	-a	2d\	-a
=25	=25	=25	=25	=25	=25	=25	=25
1D	tu-	.	.	2D/	tu-	2A/	tu-
!	!	!LO:TX:t=P:problem= kreska taktowa w źródle	!	!	!	!	!
.	.	2F/	tu-	2A\	.	2d/	.
2GG/	-a	2G/	-a	2B-\	-a	1.d	-a
!	!	!	!	!LO:TX:t=P:problem= kreska taktowa w źródle	!	!	!
2.G\	glo-	2B-\	glo-	2.B-\	glo-	.	.
=26	=26	=26	=26	=26	=26	=26	=26
.	.	2A\	-ri-	.	.	.	.
4G\	-ri-	.	.	4B-\	-ri-	.	.
!	!	!	!	!	!	!LO:TX:t=P:problem= kreska taktowa w źródle	!
!	!	!	!	!LO:TX:t=P:problem= kreska taktowa w źródle	!	!	!
!LO:TX:t=P:problem= kreska taktowa w źródle	!	!	!	!	!	!	!
2F#X\	-a	2A\	-a	2.d\	-a	[2.d/	glo-
1G	tu-	4B-\	tu-	.	.	.	.
*	*	*	*	*custos:B	*	*custos:d	*
!	!	!	!	!	!	!LO:PB:g=original	!
!	!	!	!	!LO:PB:g=original	!	!	!
.	.	4A\	.	4c\	.	4d\]	-ri-
*	*	*	*	*xywh-#124:1383,2410,6151,959	*	*xywh-#23:7602,2230,6543,1002	*
!	!	!	!	!	!	!LO:TX:t=P:problem= kreska taktowa w źródle	!
.	.	2G/	.	1B-	.	2d\	-a
=27	=27	=27	=27	=27	=27	=27	=27
*	*	*lig	*	*	*	*	*
!LO:TX:t=P:problem= kreska taktowa w źródle	!	!	!	!	!	!	!
1Fn	-a	1c	.	.	.	1f	tu-
!	!	!	!	!LO:TX:t=P:problem= kreska taktowa w źródle	!	!	!
.	.	.	.	2A/	tu-	.	.
!	!	!	!	!	!	!LO:TX:t=P:problem= kreska taktowa w źródle	!
2r	.	1B-	.	2B-\	-a	1d	-a
2.B-\	glo-	.	.	2d\	glo-	.	.
*	*	*Xlig	*	*	*	*	*
=28	=28	=28	=28	=28	=28	=28	=28
!	!	!LO:TX:t=P:problem= kreska taktowa w źródle	!	!	!	!	!
.	.	1F	-a	2c\	-ri-	2r	.
4B-\	-ri-	.	.	.	.	.	.
!	!	!	!	!LO:TX:t=P:problem= kreska taktowa w źródle	!	!	!
!LO:TX:t=P:problem= kreska taktowa w źródle	!	!	!	!	!	!	!
2A\	-a	.	.	2c\	-a	2.f\	glo-
2B-\	tu-	2r	.	2d\	tu-	.	.
.	.	.	.	.	.	4f\	-ri-
!	!	!	!	!	!	!LO:TX:t=P:problem= kreska taktowa w źródle	!
!	!	!	!	!LO:TX:t=P:problem= kreska taktowa w źródle	!	!	!
2B-\	-a	2.B-\	glo-	2d\	-a	2f\	-a
=29	=29	=29	=29	=29	=29	=29	=29
2F\	glo-	.	.	2c\	glo-	1f	tu-
.	.	4B-\	-ri-	.	.	.	.
*	*	*custos:G	*	*	*	*	*
!	!	!LO:PB:g=original	!	!	!	!	!
4F\	-ri-	2A\	-a	4c\	-ri-	.	.
*	*	*	*	*	*	*	*
!	!	!	!	!LO:TX:t=P:problem= kreska taktowa w źródle	!	!	!
4F\	-a	.	.	4c\	-a	.	.
*	*	*xywh-#228:1310,3844,6236,1091	*	*	*	*	*
0C	tu-	2G/	tu-	4c\	tu-	2e\	.
.	.	.	.	4B-\	.	.	.
.	.	4A\	.	2A/	.	1f\	.
.	.	4B-\	.	.	.	.	.
=30	=30	=30	=30	=30	=30	=30	=30
.	.	1c	.	1G	.	.	.
.	.	.	.	.	.	2e\	.
!	!	!	!	!LO:TX:t=P:problem=fermata powyżej i poniżej	!	!LO:TX:t=P:problem=fermata powyżej i poniżej	!
!LO:PB:g=original	!	!	!	!	!	!	!
1FF	-a	1c	-a.	1A;	-a	1f;	-a
!	!	!	!	!LO:PB:g=original	!	!	!
=31||	=31||	=31||	=31||	=31||	=31||	=31||	=31||
*M3/2	*	*M3/2	*	*M3/2	*	*M3/2	*
*met(3/1)	*	*met(3/1)	*	*met(3/1)	*	*met(3/1)	*
*xywh-#325:7725,3802,6325,1368	*	*	*	*xywh-#124:1261,3173,6335,898	*	*	*
2F\	O-	2c\	O-	2A\	Os-	2f\	Os-
2G\	-San-	2B-\	-ſan-	2B-\	-san-	2d\	-san-
!	!	!	!	!	!	!LO:TX:t=P:problem= kreska taktowa w źródle	!
!	!	!	!	!LO:TX:t=P:problem= kreska taktowa w źródle	!	!	!
!	!	!LO:TX:t=P:problem= kreska taktowa w źródle	!	!	!	!	!
!LO:TX:t=P:problem= kreska taktowa w źródle	!	!	!	!	!	!	!
2F\	-na	2c\	-na	2A\	-na	2f\	-na
=32	=32	=32	=32	=32	=32	=32	=32
!	!	!	!	!	!	!LO:TX:t=P:problem=niezgodny pion harmoniczny	!
1G	in	1B-	in	1d	in	1e-X	in
2A\	ex-	2A\	ex-	2c\	ex-	2e-\	ex-
=33	=33	=33	=33	=33	=33	=33	=33
2B-\	-cel-	1d	-cel-	1B-	-cel-	1d	-cel-
!LO:TX:t=P:problem= kreska taktowa w źródle	!	!	!	!	!	!	!
1BB-	-ſis	.	.	.	.	.	.
*	*	*	*	*	*	*custos:A	*
!	!	!	!	!	!	!LO:TX:t=P:problem= kreska taktowa w źródle	!
!	!	!	!	!	!	!LO:PB:g=original	!
!	!	!	!	!LO:TX:t=P:problem= kreska taktowa w źródle	!	!	!
!	!	!LO:TX:t=P:problem= kreska taktowa w źródle	!	!	!	!	!
.	.	2d,\	-ſis	2B-\	-sis	2d\	-sis
=34	=34	=34	=34	=34	=34	=34	=34
*	*	*	*ij	*	*	*	*
*	*	*	*	*	*	*xywh-#23:7582,3048,6475,886	*
2FF/	O-	2c\	O-	2A\	os-	2A/	os-
2AA/	-ſan-	2c\	-ſan-	2A\	-san-	2c\	-san-
2FF/	-na	2c\	-na	2A\	-na	2A/	-na
=35	=35	=35	=35	=35	=35	=35	=35
1AA	in	1c,	in	1F	in	1c	in
!	!	!	!	!	!	!LO:TX:t=P:problem= kreska taktowa w źródle	!
!	!	!	!	!LO:TX:t=P:problem= kreska taktowa w źródle	!	!	!
!LO:TX:t=P:problem= kreska taktowa w źródle	!	!	!	!	!	!	!
2BB-/	ex-	2B-\	ex-	2F/	ex-	2d\	ex-
=36	=36	=36	=36	=36	=36	=36	=36
1C	-cel-	1G	-cel-	1c	-cel-	1e	-cel-
!	!	!	!	!	!	!LO:TX:t=P:problem= kreska taktowa w źródle	!
!	!	!LO:TX:t=P:problem= kreska taktowa w źródle	!	!	!	!	!
!LO:TX:t=P:problem= kreska taktowa w źródle	!	!	!	!	!	!	!
2C/	-ſis	2G,/	-ſis	2c,\	-sis	2e\	-sis
=37	=37	=37	=37	=37	=37	=37	=37
*	*	*	*Xij	*	*	*	*
2GG/	O-	2G/	O-	2B-\	os-	2d\	os-
2BB-X/	-ſan-	2G/	-ſan-	2d\	-sa(n)-	2d\	-san-
2GG/	-na	2G/	-na	2B-\	-na	2d\	-na
=38	=38	=38	=38	=38	=38	=38	=38
1D	in	1F#X	in	1A	in	1d	in
2D\	ex-	2A\	ex-	2d\	ex-	2f#X\	ex-
=39	=39	=39	=39	=39	=39	=39	=39
!	!	!LO:N:acc=#	!	!	!	!	!
!	!	!LO:TX:b:t=P:problem=# below	!	!	!	!	!
1G	-cel-	1Bn	-cel-	1d	-cel-	1g	-cel-
!	!	!	!	!	!	!LO:TX:t=P:problem= kreska taktowa w źródle	!
!LO:TX:t=P:problem= kreska taktowa w źródle	!	!	!	!	!	!	!
2G\	-ſis	2B\	-ſis	2G,/	-sis	2d\	-sis
=40	=40	=40	=40	=40	=40	=40	=40
2.C/	in	1c	in	1G	in	2.e\	in
4BB-/	.	.	.	.	.	4d\	.
!	!	!	!	!LO:TX:t=P:problem= kreska taktowa w źródle	!	!	!
2AA/	ex-	2F/	ex-	2A\	ex-	2c\	.
=41	=41	=41	=41	=41	=41	=41	=41
2FF/	-cel-	1F	-cel-	2c\	-cel-	2c\	ex-
1C	.	.	.	1G	.	1c	-cel-
.	.	2E/	.	.	.	.	.
=42	=42	=42	=42	=42	=42	=42	=42
!	!	!	!	!LO:TX:t=P:problem=fermata powyżej i poniżej	!	!LO:TX:t=P:problem=fermata powyżej i poniżej	!
!	!	!LO:PB:g=original	!	!	!	!	!
!LO:TX:t=P:problem= kreska taktowa w źródle	!	!	!	!	!	!	!
!	!	!LO:TX:t=P:problem= kreska taktowa w źródle	!	!	!	!	!
!LO:PB:g=original	!	!	!	!	!	!	!
1FF	-ſis.	1F	-ſis.	1A;	-sis	1c;	-sis
!	!	!	!	!LO:PB:g=original	!	!	!
2ryy	.	2ryy	.	2ryy	.	2ryy	.
=43||	=43||	=43||	=43||	=43||	=43||	=43||	=43||
*M2/1	*	*M2/1	*	*M2/1	*	*M2/1	*
*met(c|)	*	*met(c|)	*	*met(c|)	*	*met(c|)	*
*xywh-#326:1518,691,6010,1016	*	*xywh-#228:7797,600,6294,1027	*	*xywh-#124:1247,3928,6348,1041	*	*xywh-#23:7582,3750,6557,1349	*
!	!	!LO:TX:t=P:problem= kreska taktowa w źródle	!	!	!	!	!
!LO:TX:t=P:problem= kreska taktowa w źródle	!	!	!	!	!	!	!
1r	.	1r	.	2.F/	Be-	2r	.
.	.	.	.	.	.	2.f\	Be-
!	!	!	!	!LO:TX:t=P:problem= kreska taktowa w źródle	!	!	!
.	.	.	.	4F/	-ne-	.	.
2.C/	BE-	2r	.	1G	-dic-	.	.
.	.	.	.	.	.	4f\	-ne-
!	!	!	!	!	!	!LO:TX:t=P:problem= kreska taktowa w źródle	!
.	.	2.c\	BE-	.	.	2e\	-di-
!LO:TX:t=P:problem= kreska taktowa w źródle	!	!	!	!	!	!	!
4C/	-ne-	.	.	.	.	.	.
=44	=44	=44	=44	=44	=44	=44	=44
1D	-dic-	.	.	2F/	-tus	1.f	-ctus
.	.	4c\	-ne-	.	.	.	.
!	!	!LO:TX:a:t=P:problem=# above	!	!	!	!	!
!	!	!LO:N:acc=#	!	!	!	!	!
!	!	!	!	!LO:TX:t=P:problem= kreska taktowa w źródle	!	!	!
!	!	!LO:TX:t=P:problem= kreska taktowa w źródle	!	!	!	!	!
.	.	2Bn\	-dic-	2F/	qui	.	.
2C/	-tus	1c	-tus	2G/	ve-	.	.
!	!	!	!	!	!	!LO:TX:t=P:problem= kreska taktowa w źródle	!
!LO:TX:t=P:problem= kreska taktowa w źródle	!	!	!	!	!	!	!
2C/	qui	.	.	2A/	.	2e\	qui
=45	=45	=45	=45	=45	=45	=45	=45
2D/	ve-	2F/	qui	2B-\	.	1d	ve-
2E\	.	2c\	.	4A/	.	.	.
!	!	!	!	!LO:TX:t=P:problem= kreska taktowa w źródle	!	!	!
.	.	.	.	4G/	.	.	.
2F\	.	1c	ve-	4A/	.	1.c	-nit
.	.	.	.	4B-/	.	.	.
4E\	.	.	.	2.c\	.	.	.
!LO:TX:t=P:problem= kreska taktowa w źródle	!	!	!	!	!	!	!
4D/	.	.	.	.	.	.	.
=46	=46	=46	=46	=46	=46	=46	=46
!	!	!LO:TX:t=P:problem= kreska taktowa w źródle	!	!	!	!	!
2E\	.	1c	-nit	.	.	.	.
.	.	.	.	4B-\	.	.	.
!	!	!	!	!	!	!LO:TX:t=P:problem= kreska taktowa w źródle	!
!	!	!	!	!LO:TX:t=P:problem= kreska taktowa w źródle	!	!	!
2F,\	-nit	.	.	2A/	.	2f\	in
2.C/	Be-	1r	.	2G/	-nit	2f\	no-
.	.	.	.	2.c\	Be-	2e\	-mi-
!LO:TX:t=P:problem= kreska taktowa w źródle	!	!	!	!	!	!	!
4C/	-ne-	.	.	.	.	.	.
=47	=47	=47	=47	=47	=47	=47	=47
1D	-dic-	2.F/	Be-	.	.	1.f	-ne
.	.	.	.	4c\	-ne-	.	.
!	!	!	!	!LO:TX:t=P:problem= kreska taktowa w źródle	!	!	!
.	.	.	.	2B-\	-dic-	.	.
!	!	!LO:TX:t=P:problem= kreska taktowa w źródle	!	!	!	!	!
.	.	4F/	-ne-	.	.	.	.
2C/	-tus	1G	-dic-	2c\	-tus	.	.
!	!	!	!	!	!	!LO:TX:t=P:problem= kreska taktowa w źródle	!
!	!	!	!	!LO:TX:t=P:problem= kreska taktowa w źródle	!	!	!
!LO:TX:t=P:problem= kreska taktowa w źródle	!	!	!	!	!	!	!
2C/	qui	.	.	2G/	qui	2e\	.
=48	=48	=48	=48	=48	=48	=48	=48
2D\	ve-	2F/	-tus	1B-	ve-	2.f\	do-
!	!	!LO:TX:t=P:problem= kreska taktowa w źródle	!	!	!	!	!
2E\	.	2G/	qui	.	.	.	.
.	.	.	.	.	.	8e\L	.
.	.	.	.	.	.	8d\J	.
2F\	.	2A/	.	2A/	.	2c\	.
4E\	.	1B-	ve-	4G/	.	1d	.
!	!	!	!	!LO:TX:t=P:problem= kreska taktowa w źródle	!	!	!
!LO:TX:t=P:problem= kreska taktowa w źródle	!	!	!	!	!	!	!
4D\	.	.	.	4F/	.	.	.
=49	=49	=49	=49	=49	=49	=49	=49
2E\	.	.	.	2G/	.	.	.
!LO:TX:t=P:problem= kreska taktowa w źródle	!	!	!	!	!	!	!
2F\	.	4A\	.	2A/	.	1c	.
!	!	!LO:TX:t=P:problem= kreska taktowa w źródle	!	!	!	!	!
.	.	4G\	.	.	.	.	.
1D	.	2A\	.	1.F	.	.	.
.	.	2d\	.	.	.	2B-/	-mi-
=50	=50	=50	=50	=50	=50	=50	=50
*custos:BB	*	*	*	*	*	*	*
!	!	!	!	!	!	!LO:TX:t=P:problem= kreska taktowa w źródle	!
!LO:TX:t=P:problem= kreska taktowa w źródle	!	!	!	!	!	!	!
!LO:PB:g=original	!	!	!	!	!	!	!
1C	.	2.G/	.	.	.	1c	-ni
!	!	!	!	!LO:TX:t=P:problem= kreska taktowa w źródle	!	!	!
.	.	.	.	2E/	.	.	.
!	!	!LO:TX:t=P:problem= kreska taktowa w źródle	!	!	!	!	!
.	.	4A/	.	.	.	.	.
*	*	*	*	*custos:F	*	*	*
!	!	!	!	!	!	!LO:TX:t=P:problem= kreska taktowa w źródle	!
!	!	!	!	!LO:PB:g=original	!	!	!
*xywh-#326:1498,1563,6037,954	*	*	*	*	*	*	*
2BB-,/	-nit	1B-	.	2F/	-nit	1r	.
*	*	*	*	*xywh-#124:7658,569,6627,1068	*	*	*
!	!	!	!	!LO:TX:t=P:problem= kreska taktowa w źródle	!	!	!
!LO:TX:t=P:problem= kreska taktowa w źródle	!	!	!	!	!	!	!
2B-\	in	.	.	2r	.	.	.
=51	=51	=51	=51	=51	=51	=51	=51
2B-\	no-	2c,\	nit	1F	In	2.c\	Be-
!	!	!LO:TX:t=P:problem= kreska taktowa w źródle	!	!	!	!	!
2A\	-mi-	2c\	in	.	.	.	.
.	.	.	.	.	.	4c\	-ne-
!	!	!	!	!	!	!LO:TX:t=P:problem= kreska taktowa w źródle	!
1.B-	-ne	4B-\	no-	2B-\	no-	1d	-dic-
.	.	4c\	.	.	.	.	.
.	.	4d\	.	4B-\	-mi-	.	.
!	!	!LO:TX:t=P:problem= kreska taktowa w źródle	!	!	!	!	!
.	.	4e\	.	4B-\	-ne	.	.
=52	=52	=52	=52	=52	=52	=52	=52
*	*	*	*	*	*	*custos:f	*
!	!	!	!	!	!	!LO:PB:g=original	!
.	.	2f\	.	4F/	do-	2c/	-tus
.	.	.	.	4G/	.	.	.
*	*	*	*	*	*	*xywh-#24:1474,648,5979,1152	*
!	!	!	!	!	!	!LO:TX:t=P:problem= kreska taktowa w źródle	!
!	!	!LO:TX:t=P:problem= kreska taktowa w źródle	!	!	!	!	!
!LO:TX:t=P:problem= kreska taktowa w źródle	!	!	!	!	!	!	!
2A\	.	2F/	.	4A\	.	2f\	qui
.	.	.	.	8G/L	.	.	.
!	!	!	!	!LO:TX:t=P:problem= kreska taktowa w źródle	!	!	!
.	.	.	.	8A/J	.	.	.
1G	.	4G/	.	1B-	.	2d\	ve-
.	.	4A/	.	.	.	.	.
*	*	*custos:A	*	*	*	*	*
!	!	!	!	!	!	!LO:TX:t=P:problem= kreska taktowa w źródle	!
!	!	!LO:PB:g=original	!	!	!	!	!
.	.	1B-	.	.	.	2e\	.
=53	=53	=53	=53	=53	=53	=53	=53
*	*	*xywh-#228:7780,1456,6282,872	*	*	*	*	*
2.F\	Do-	.	.	2c\	.	2.f\	.
!	!	!LO:TX:t=P:problem= kreska taktowa w źródle	!	!	!	!	!
.	.	2A\	mi-	2F/	-mi-	.	.
4F\	-mi-	.	.	.	.	4e\	.
!	!	!	!	!	!	!LO:TX:t=P:problem= kreska taktowa w źródle	!
!	!	!	!	!LO:TX:t=P:problem= kreska taktowa w źródle	!	!	!
!LO:TX:t=P:problem= kreska taktowa w źródle	!	!	!	!	!	!	!
1BB-	-ni	2B-\	-ne	1F	-ni	1d	.
.	.	4F/	Do-	.	.	.	.
.	.	4G/	.	.	.	.	.
=54	=54	=54	=54	=54	=54	=54	=54
2r	.	4A\	.	1F	in	4c/	.
.	.	4B-\	.	.	.	4B-/	.
!	!	!LO:TX:t=P:problem= kreska taktowa w źródle	!	!	!	!	!
2F\	in	2c\	.	.	.	2A/	.
!	!	!LO:TX:t=P:problem= kreska taktowa w źródle	!	!	!	!	!
2F\	no-	1C	-mi-	2.G/	no-	2c\	-nit
!	!	!	!	!	!	!LO:TX:t=P:problem= kreska taktowa w źródle	!
!LO:TX:t=P:problem= kreska taktowa w źródle	!	!	!	!	!	!	!
2E\	-mi-	.	.	.	.	2c\	in
.	.	.	.	4G/	-mi-	.	.
=55	=55	=55	=55	=55	=55	=55	=55
!	!	!	!	!LO:TX:t=P:problem= kreska taktowa w źródle	!	!	!
!	!	!LO:TX:t=P:problem= kreska taktowa w źródle	!	!	!	!	!
1.F	-ne	1c	-ni	1F	-ne	2.A/	no-
.	.	.	.	.	.	4B-/	-mi-
*	*	*	*	*lig	*	*	*
!	!	!	!	!	!	!LO:TX:t=P:problem= kreska taktowa w źródle	!
.	.	2r	.	1C	do-	1c	-ne
2E\	.	2c\	In	.	.	.	.
=56	=56	=56	=56	=56	=56	=56	=56
!LO:TX:t=P:problem= kreska taktowa w źródle	!	!	!	!	!	!	!
1D	.	2c\	no-	1F	.	4d\	do-
.	.	.	.	.	.	4e\	.
!	!	!	!	!	!	!LO:TX:t=P:problem= kreska taktowa w źródle	!
.	.	4Bn\	-mi-	.	.	2f\	.
!	!	!LO:TX:t=P:problem= kreska taktowa w źródle	!	!	!	!	!
.	.	4B,\	-ne	.	.	.	.
*	*	*	*	*Xlig	*	*	*
1.C	Do-	2c\	Do-	2E/	.	2g\	.
!	!	!	!	!LO:TX:t=P:problem= kreska taktowa w źródle	!	!	!
.	.	2A/	.	2F/	.	1f	.
=57	=57	=57	=57	=57	=57	=57	=57
.	.	2G/	.	2.G/	.	.	.
2C/	-mi-	2c\	-mi-	.	.	2e\	-mi-
.	.	.	.	4G/	-mi-	.	.
!	!	!LO:TX:a:t=Oſsanna vt supra	!	!LO:TX:a:t=Oſſanna &colon;~.	!	!LO:TX:a:t=Ossanna\nVt ſupra	!
!LO:PB:g=original	!	!	!	!	!	!	!
1FF	-ni	1c	-ni.	1A;	-ni	1f;	-ni
=58	=58	=58	=58	=58	=58	=58	=58
*M3/2	*	*M3/2	*	*M3/2	*	*M3/2	*
*met(3/1)	*	*met(3/1)	*	*met(3/1)	*	*met(3/1)	*
*xywh-#326:1402,2394,6140,934	*	*	*	*	*	*	*
2F\	O-	2c\yy	O-	2A\yy	Os-	2f\yy	Os-
2G\	-San-	2B-\yy	-ſan-	2B-\yy	-san-	2d\yy	-san-
!LO:TX:t=P:problem= kreska taktowa w źródle	!	!	!	!	!	!	!
2F\	-na	2c\yy	-na	2A\yy	-na	2f\yy	-na
=59	=59	=59	=59	=59	=59	=59	=59
!	!	!	!	!	!	!LO:TX=P:problem=niezgodny pion harmoniczny	!
1G	in	1B-yy	in	1dyy	in	1e-Xyy	in
2A\	ex-	2A\yy	ex-	2c\yy	ex-	2e-\yy	ex-
=60	=60	=60	=60	=60	=60	=60	=60
2B-\	-cel-	1dyy	-cel-	1B-yy	-cel-	1dyy	-cel-
!LO:TX:t=P:problem= kreska taktowa w źródle	!	!	!	!	!	!	!
1BB-	-ſis	.	.	.	.	.	.
*	*	*	*	*	*	*custos:A	*
.	.	2d,\yy	-ſis	2B-\yy	-sis	1dyy	-sis
=61	=61	=61	=61	=61	=61	=61	=61
2FF/	O-	2c\yy	/O-	2A\yy	os-	.	os-
2AA/	-ſan-	2c\yy	-ſan-	2A\yy	-san-	2c\yy	-san-
!LO:TX:t=P:problem= kreska taktowa w źródle	!	!	!	!	!	!	!
2FF/	-na	2c\yy	-na	2A\yy	-na	2A/yy	-na
=62	=62	=62	=62	=62	=62	=62	=62
1AA	in	1c,yy	in	1Fyy	in	1cyy	in
!LO:TX:t=P:problem= kreska taktowa w źródle	!	!	!	!	!	!	!
2BB-/	ex-	2B-\yy	ex-	2F/yy	ex-	2d\yy	ex-
=63	=63	=63	=63	=63	=63	=63	=63
1C	-cel-	1Gyy	-cel-	1cyy	-cel-	1eyy	-cel-
!LO:TX:t=P:problem= kreska taktowa w źródle	!	!	!	!	!	!	!
2C/	-ſis	2G,/yy	-ſis/	2c,\yy	-sis	2e\yy	-sis
=64	=64	=64	=64	=64	=64	=64	=64
*	*ij	*	*	*	*	*	*
2GG/	O-	2G/yy	O-	2B-\yy	os-	2d\yy	os-
2BB-/	-ſan-	2G/yy	-ſan-	2d\yy	-sa(n)-	2d\yy	-san-
2GG/	-na	2G/yy	-na	2B-\yy	-na	2d\yy	-na
=65	=65	=65	=65	=65	=65	=65	=65
1D	in	1F#Xyy	in	1Ayy	in	1dyy	in
!LO:TX:t=P:problem= kreska taktowa w źródle	!	!	!	!	!	!	!
2D\	ex-	2A\yy	ex-	2d\yy	ex-	2f#X\yy	ex-
=66	=66	=66	=66	=66	=66	=66	=66
!	!	!LO:N:acc=#	!	!	!	!	!
!	!	!LO:TX:b=P:problem=# below	!	!	!	!	!
1G	-cel-	1Bnyy	-cel-	1dyy	-cel-	1gyy	-cel-
!LO:TX:t=P:problem= kreska taktowa w źródle	!	!	!	!	!	!	!
2G\	-ſis	2B\yy	-ſis	2G,/yy	-sis	2d\yy	-sis
*	*Xij	*	*	*	*	*	*
=67	=67	=67	=67	=67	=67	=67	=67
2.C/	in	1cyy	in	1Gyy	in	2.e\yy	in
4BB-/	.	.	.	.	.	4d\yy	.
!LO:TX:t=P:problem= kreska taktowa w źródle	!	!	!	!	!	!	!
2AA/	ex-	2F/yy	ex-	2A\yy	ex-	2c\yy	.
=68	=68	=68	=68	=68	=68	=68	=68
2FF/	-cel-	1Fyy	-cel-	2c\yy	-cel-	2c\yy	ex-
1C	.	.	.	1Gyy	.	1cyy	-cel-
.	.	2E/yy	.	.	.	.	.
=69	=69	=69	=69	=69	=69	=69	=69
1FF	-ſis.	1Fyy	-ſis.	1A;yy	-sis	1c;yy	-sis
2ryy	.	2ryy	.	2ryy	.	2ryy	.
!LO:PB:g=original	!	!	!	!	!	!	!
==	==	==	==	==	==	==	==
*-	*-	*-	*-	*-	*-	*-	*-
!!!system-decoration: [(s1,s2,s3,s4)]
!!!RDF**kern: > = above
!!!RDF**kern: < = below
!!!ENC: Filip Voros
!!!END: 2022-01-05
!!!IIIF: https://repozytorium.nifc.pl/islandora/object/pl-kk%3A750/datastream/IIIF/view
!!!ENC-iiif: Jan Barakat
!!!END-iiif: 2022-09-03
!!!YEC: Copyright 2022 Narodowy Instytut Fryderyka Chopina (https://polishscores.org)
!!!YEM: License CC-BY-4.0 (https://creativecommons.org/licenses/by/4.0)
